Papirus/16x16/apps/discord.svg

<?xml version="1.0" encoding="UTF-8" standalone="no"?>
<svg xmlns="http://www.w3.org/2000/svg" height="16" viewBox="0 0 16 16" width="16" version="1.1">
 <path style="fill:#7289da" d="M 2.6152,0 C 1.7203,0 1,0.72031 1,1.6152 v 10.77 c 0,0.895 0.7203,1.615 1.6152,1.615 H 12 l 3,2 V 1.6152 C 15,0.72051 14.28,2e-4 13.385,2e-4 Z"/>
 <path style="fill:#ffffff" d="m 6.359375,3 c 0,0 -0.3982063,-0.028653 -1.8789062,0.9980469 C 2.9997688,5.0247469 3,6.4852281 3,9.5488281 3,11.000028 2.8642188,10.933 5.1367188,11 c 0,0 0.3809531,-0.422109 0.6894531,-0.787109 C 4.5202719,9.8478906 5.0253906,9.0878906 5.0253906,9.0878906 6.3111013,9.82395 6.999168,9.9997576 7.9980469,10 H 8 c 0.9988819,-2.417e-4 1.6869432,-0.1760486 2.972656,-0.9121094 0,0 0.505119,0.76 -0.800781,1.1250004 0.3085,0.365 0.689453,0.787109 0.689453,0.787109 2.2725,-0.067 2.136719,2.8e-5 2.136719,-1.4511719 0,-3.0636 2.31e-4,-4.5240812 -1.480469,-5.5507812 C 10.036878,2.9713469 9.6386719,3 9.6386719,3 v 0.00391 L 9.5351562,3.1210938 c 0.4629,0.5172329 1.3945318,1.2460937 1.3945318,1.2460937 C 10,4 9.4584488,3.4164527 8,3.40625 c -8.052e-4,-3.6e-6 -0.00115,3.4e-6 -0.00195,0 C 6.3518943,3.4443092 6,4 5.0703125,4.3671875 c 0,0 0.9296781,-0.7288608 1.3925781,-1.2460937 L 6.359375,3.0039062 Z M 6,6 C 6.5587,6 7.0097,6.4456 7,7 7,7.5546 6.5587,8 6,8 5.4511,8 5,7.5546 5,7 5,6.4456 5.4413,6 6,6 Z m 3.9980469,0 c 0.5587001,0 1.0000001,0.4456 1.0000001,1 0,0.5546 -0.4511,1 -1.0000001,1 -0.5587,0 -1,-0.4454 -1,-1 -0.0097,-0.5544 0.4413,-1 1,-1 z"/>
</svg>

<?xml version="1.0" encoding="UTF-8" standalone="no"?>
<svg xmlns="http://www.w3.org/2000/svg" height="16" viewBox="0 0 16 16" width="16" version="1.1">
 <g transform="translate(0 -1036.4)">
  <path d="m2.6152 0c-0.8949 0-1.6152 0.72031-1.6152 1.6152v10.77c0 0.895 0.7203 1.615 1.6152 1.615h9.3848l3 2v-14.385c0-0.89469-0.72-1.615-1.615-1.615z" fill="#7289da" transform="translate(0 1036.4)"/>
  <path d="m6.3594 3s-1.3982-0.0287-2.8789 0.998-1.4805 2.4872-1.4805 5.5508 0.8642 1.3842 3.1367 1.4512c0 0 0.381-0.422 0.6895-0.787-1.3059-0.365-1.8008-1.1251-1.8008-1.1251s0.102 0.0679 0.2871 0.1641c0.0102 0 0.0224 0.0135 0.043 0.0195 0.0308 0.019 0.0609 0.0298 0.0918 0.0488 0.257 0.1345 0.5154 0.2398 0.7519 0.3262 0.4216 0.1632 0.9237 0.3065 1.5098 0.4125 0.7712 0.134 1.6769 0.184 2.664 0.013 0.4833-0.0867 0.976-0.2122 1.49-0.4138 0.36-0.1254 0.762-0.307 1.184-0.5664 0 0-0.514 0.7794-1.861 1.1352 0.308 0.355 0.677 0.767 0.677 0.767 2.273-0.067 3.137-1.4509 3.137-1.4413 0-3.0637-1.48-5.5507-1.48-5.5507-1.471-1.0276-2.8794-0.9981-2.8794-0.9981l-0.1445 0.1523c1.7479 0.4898 2.5609 1.211 2.5609 1.211-1.07-0.5378-2.1192-0.8064-3.0961-0.9121-0.7403-0.076-1.4489-0.0585-2.0761 0.0195-0.0617 0-0.1141 0.0125-0.1758 0.0195-0.3599 0.039-1.2338 0.1541-2.334 0.6055-0.3805 0.1536-0.6055 0.2676-0.6055 0.2676s0.8425-0.7564 2.6934-1.2461l-0.1035-0.1172v-0.0039zm-0.3594 3c0.5587 0 1.0097 0.4456 1 1 0 0.5546-0.4413 1-1 1-0.5489 0-1-0.4454-1-1 0-0.5544 0.4413-1 1-1zm4 0c0.559 0 1.01 0.4456 1 1 0 0.5546-0.441 1-1 1-0.5489 0-1-0.4454-1-1 0-0.5544 0.4413-1 1-1z" transform="translate(0 1036.4)" fill="#fff"/>
 </g>
</svg>
